X:18
T:Money Musk
M:2/4
L:1/16
Z:jason
B: Bob Walters, 1954
N: An old tune, rarely played by traditional fiddlers in the 1940s-60s
K:A
cd | eAcA eAdf | eAcA Bcdf | eAcA eaga | fdBe cAcd |
eAcA eAdf | eAcA Bcdf | eAcd eafd | BecA A2 :|
|: (3(efg) | a2ga faeg | aefe cAce | a2ga fefg | afed cAce |
a2ga faeg | aefe cAce | a2ga fefg | afec A2 :|
|: !1!a2 | !1!a!3!c'ea c'eac' | !2!bd'eb d'ebd' | ac'ea c'eac' | bd'eb a2ae |
ac'ea c'eac' | bd'eb d'ebd' | ac'ea c'eac' | bd'eb a2 :|

